X: 73	% in top-right corner
T: Ann MacNamara's Strathspey
C: D.R.MacDonald 1962
%D:1962
R: strathspey
S: Fiddle Hell Online 2021-5-14
Z: 2021 John Chambers <jc:trillian.mit.edu>
N: Her names are also spelled "Anne" and "McNamara". I've no idea which are correct.
M: C
L: 1/8
K: A
E \
|: C<EA>E F>EA>E | C<EA>c e>fe>c | f<ae>c B>AB<c |\
[1 F<DE>C B,/B,/B, B,>D :|[2 F<DE>C A,/A,/A, A, |]
B |:\
A>ce>c e<fe>c | e>fa>c f/e/f/g/ a>e | f>de>c e>fa>e |\
[1 f<ae>c B/B/B B>c :|[2 f<ae>c A/A/A A |]
